images/quest-header-whattapp.svg

<svg width="15" height="15" viewBox="0 0 15 15" fill="none" xmlns="http://www.w3.org/2000/svg">
<path fill-rule="evenodd" clip-rule="evenodd" d="M12.924 2.08083C11.5844 0.739697 9.80294 0.000786538 7.90502 0C3.99417 0 0.811302 3.18278 0.809728 7.09467C0.809204 8.34518 1.13588 9.56589 1.75681 10.6419L0.750214 14.3185L4.51153 13.3318C5.54793 13.8972 6.71472 14.1951 7.90213 14.1955H7.9051C11.8155 14.1955 14.9987 11.0124 15.0002 7.10035C15.001 5.20444 14.2637 3.42188 12.924 2.08083ZM7.90502 12.9972H7.90257C6.84441 12.9968 5.80661 12.7124 4.90105 12.1752L4.6858 12.0473L2.45377 12.6329L3.04953 10.4567L2.90927 10.2336C2.31892 9.29463 2.00719 8.20938 2.00772 7.09511C2.00894 3.84364 4.65451 1.19834 7.90737 1.19834C9.48255 1.19886 10.9633 1.81306 12.0766 2.92776C13.19 4.04246 13.8028 5.52413 13.8023 7.09992C13.8009 10.3516 11.1555 12.9972 7.90502 12.9972ZM11.1398 8.58045C10.9626 8.49166 10.0909 8.0629 9.92834 8.00365C9.76597 7.94449 9.64764 7.91503 9.52957 8.09244C9.41133 8.26985 9.07163 8.66924 8.96815 8.78748C8.86468 8.90581 8.76138 8.92067 8.58406 8.83188C8.40674 8.74317 7.83554 8.55589 7.15833 7.95191C6.63135 7.48183 6.27557 6.90127 6.17209 6.72386C6.06879 6.54628 6.17122 6.45959 6.24987 6.36206C6.44179 6.12373 6.63397 5.87388 6.69305 5.75563C6.75221 5.6373 6.72258 5.53374 6.67819 5.44504C6.63397 5.35633 6.27941 4.48371 6.13172 4.12863C5.98769 3.78308 5.84166 3.82975 5.73277 3.82433C5.62947 3.81917 5.51123 3.81813 5.39298 3.81813C5.27483 3.81813 5.08274 3.86243 4.92018 4.04002C4.75772 4.21751 4.29978 4.64635 4.29978 5.51897C4.29978 6.39159 4.93504 7.23459 5.02366 7.35292C5.11228 7.47125 6.27382 9.26194 8.05219 10.0298C8.47517 10.2126 8.80534 10.3216 9.06289 10.4033C9.48762 10.5382 9.87399 10.5192 10.1795 10.4736C10.5202 10.4226 11.2283 10.0446 11.3762 9.63056C11.5239 9.21641 11.5239 8.8615 11.4795 8.78748C11.4353 8.71355 11.317 8.66924 11.1398 8.58045Z" fill="white"/>
</svg>

<svg xmlns="http://www.w3.org/2000/svg" width="15" height="15" fill="none"><path fill="#fff" fill-rule="evenodd" d="M12.924 2.08A7.05 7.05 0 0 0 7.905 0C3.995 0 .811 3.183.81 7.095c0 1.25.326 2.47.947 3.547L.75 14.319l3.762-.987a7.088 7.088 0 0 0 3.39.863h.003c3.91 0 7.094-3.183 7.095-7.095a7.051 7.051 0 0 0-2.076-5.02ZM7.905 12.998h-.002a5.89 5.89 0 0 1-3.002-.822l-.215-.128-2.232.586.596-2.176-.14-.223a5.883 5.883 0 0 1-.902-3.139 5.906 5.906 0 0 1 5.9-5.897c1.575 0 3.055.615 4.169 1.73A5.862 5.862 0 0 1 13.802 7.1a5.906 5.906 0 0 1-5.897 5.897ZM11.14 8.58c-.177-.088-1.05-.517-1.212-.576-.162-.06-.28-.089-.398.088-.119.178-.458.577-.562.695-.103.119-.207.134-.384.045-.177-.089-.748-.276-1.426-.88a5.348 5.348 0 0 1-.986-1.228c-.103-.178 0-.264.078-.362.192-.238.384-.488.443-.606.06-.119.03-.222-.015-.311-.044-.089-.399-.961-.546-1.316-.144-.346-.29-.3-.4-.305a7.08 7.08 0 0 0-.339-.006.651.651 0 0 0-.473.222c-.162.178-.62.606-.62 1.479 0 .873.635 1.716.724 1.834.088.118 1.25 1.909 3.028 2.677.423.183.753.292 1.01.373.426.135.812.116 1.118.07.34-.05 1.048-.428 1.196-.842.148-.415.148-.77.104-.844-.045-.073-.163-.118-.34-.207Z" clip-rule="evenodd"/></svg>
